UI/Core-UI/SVG/redo_outline_24px.svg

<svg xmlns="http://www.w3.org/2000/svg" width="24" height="24" viewBox="0 0 24 24"><g style="opacity:0"><rect width="24" height="24" style="fill:none"/></g><path d="M9,7h9l-3.5-3.46L16,2l6,6-6,6-1.5-1.5L18,9H9c-3,0-5,1-5,5.5S6,20,9,20h9v2H9c-4,0-7-2-7-7.55S5,7,9,7Z"/></svg>

<svg width="24" height="24" viewBox="0 0 24 24" fill="none" xmlns="http://www.w3.org/2000/svg">
<path d="M9 7H18L14.5 3.54L16 2L22 8L16 14L14.5 12.5L18 9H9C6 9 4 10 4 14.5C4 19 6 20 9 20H18V22H9C5 22 2 20 2 14.45C2 8.9 5 7 9 7Z" fill="#0F1621"/>
</svg>
